src/pos-icons/seed-outline.svg

<svg height="24" viewBox="0 0 24 24" width="24" xmlns="http://www.w3.org/2000/svg"><path d="m17.2 5c.6 0 1.2 0 1.7.1.2 2.3.2 6.9-2.5 10.1-2 2.5-5.4 3.8-10 3.8-.4 0-.9 0-1.3 0-.2-4.6.7-8.2 2.8-10.5 2.5-2.9 6.5-3.5 9.3-3.5m0-2c-5.5 0-15.6 2.1-14 17.8 1.1.1 2.2.2 3.2.2 17.9 0 14.3-17.7 14.3-17.7s-1.4-.3-3.5-.3m-.2 4c-10 0-10 10-10 10 4-8 10-10 10-10z"/></svg>

<?xml version="1.0" encoding="UTF-8"?><!DOCTYPE svg PUBLIC "-//W3C//DTD SVG 1.1//EN" "http://www.w3.org/Graphics/SVG/1.1/DTD/svg11.dtd"><svg xmlns="http://www.w3.org/2000/svg" xmlns:xlink="http://www.w3.org/1999/xlink" version="1.1" id="mdi-seed-outline" width="24" height="24" viewBox="0 0 24 24"><path d="M17.2,5V5C17.8,5 18.4,5 18.9,5.1C19.1,7.4 19.1,12 16.4,15.2C14.4,17.7 11,19 6.4,19C6,19 5.5,19 5.1,19C4.9,14.4 5.8,10.8 7.9,8.5C10.4,5.6 14.4,5 17.2,5M17.2,3C11.7,3 1.6,5.1 3.2,20.8C4.3,20.9 5.4,21 6.4,21C24.3,21 20.7,3.3 20.7,3.3C20.7,3.3 19.3,3 17.2,3M17,7C7,7 7,17 7,17C11,9 17,7 17,7Z" /></svg>
